dist/svg/u1F4EC.svg

<?xml version="1.0" encoding="UTF-8"?><svg id="a" xmlns="http://www.w3.org/2000/svg" xmlns:xlink="http://www.w3.org/1999/xlink" viewBox="0 0 40 40"><defs><style>.c{fill:none;}.d{fill:#e5e9ee;}.e{fill:#d0d5da;}.f{fill:#afb7c0;}.g{fill:#1e6ef4;}.h{fill:#082b9c;}.i{fill:#0a37c7;}.j{clip-path:url(#b);}</style><clipPath id="b"><path d="M12.034,11.143c3.946,.255,6.931,3.709,6.931,7.663v13.4H5.528c-.78,0-1.413-.633-1.413-1.413v-12.242c0-4.264,3.595-7.689,7.919-7.409Z" fill="none"/></clipPath></defs><g><path d="M28.46,9.658H11.54c-4.672,0-8.46,3.788-8.46,8.46v13.389c0,1.198,.971,2.17,2.17,2.17h29.502c1.198,0,2.17-.971,2.17-2.17v-13.389c0-4.673-3.788-8.46-8.46-8.46Z" fill="#1e6ef4"/><path d="M12.034,11.143c3.946,.255,6.931,3.709,6.931,7.663v13.4H5.528c-.78,0-1.413-.633-1.413-1.413v-12.242c0-4.264,3.595-7.689,7.919-7.409Z" fill="#082b9c"/><path d="M32.255,4.283c.539-.411,.248-1.271-.429-1.271h-4.956c-.368,0-.665,.298-.665,.665v14.391c0,.649,.526,1.175,1.175,1.175h0c.649,0,1.175-.526,1.175-1.175V7.103l3.7-2.821Z" fill="#0a37c7"/><path d="M17.777,33.677h5.338v2.759c0,.395-.321,.716-.716,.716h-3.906c-.395,0-.716-.321-.716-.716v-2.759h0Z" fill="#0a37c7"/><g clip-path="#b"><g><g><path d="M9.62,21.095v8.587c0,.597,.216,1.139,.563,1.572l6.574-5.241-7.137-4.918Z" fill="#d0d5da"/><path d="M28.309,21.095l-7.137,4.918,6.574,5.241c.347-.432,.563-.974,.563-1.572v-8.587Z" fill="#d0d5da"/><path d="M20.684,26.349c-1.035,.713-2.404,.713-3.439,0l-.488-.336-6.574,5.241c.463,.577,1.165,.954,1.962,.954h13.638c.797,0,1.5-.377,1.962-.954l-6.574-5.241-.488,.336Z" fill="#e5e9ee"/></g><path d="M28.309,21.095l-7.625,6.354c-1.035,.803-2.404,.803-3.439,0l-7.625-6.354H28.309Z" fill="#afb7c0"/><path d="M25.784,17.559H12.146c-1.395,0-2.525,1.131-2.525,2.525v1.01l7.625,5.254c1.035,.713,2.404,.713,3.439,0l7.625-5.254v-1.01c0-1.395-1.131-2.525-2.525-2.525Z" fill="#e5e9ee"/></g></g></g><rect width="40" height="40" fill="none"/></svg>

<svg id="Layer_1" data-name="Layer 1" xmlns="http://www.w3.org/2000/svg" xmlns:xlink="http://www.w3.org/1999/xlink" viewBox="0 0 40 40"><defs><style>.cls-1{fill:none;}.cls-2{fill:#1e6ef4;}.cls-3{fill:#082b9c;}.cls-4{fill:#0a37c7;}.cls-5{clip-path:url(#clip-path);}.cls-6{fill:#d0d5da;}.cls-7{fill:#e5e9ee;}.cls-8{fill:#afb7c0;}</style><clipPath id="clip-path"><path class="cls-1" d="M12.034,11.143a7.6,7.6,0,0,1,6.931,7.664v13.4H5.528a1.412,1.412,0,0,1-1.413-1.413V18.553A7.426,7.426,0,0,1,12.034,11.143Z"/></clipPath></defs><path class="cls-2" d="M28.46,9.658H11.54a8.461,8.461,0,0,0-8.461,8.46V31.507a2.171,2.171,0,0,0,2.17,2.17h29.5a2.17,2.17,0,0,0,2.169-2.17V18.118A8.46,8.46,0,0,0,28.46,9.658Z"/><path class="cls-3" d="M12.034,11.143a7.6,7.6,0,0,1,6.931,7.664v13.4H5.528a1.412,1.412,0,0,1-1.413-1.413V18.553A7.426,7.426,0,0,1,12.034,11.143Z"/><path class="cls-4" d="M32.255,4.283a.709.709,0,0,0-.429-1.272H26.87a.666.666,0,0,0-.666.666V18.068a1.175,1.175,0,0,0,1.175,1.175h0a1.176,1.176,0,0,0,1.176-1.175V7.1Z"/><path class="cls-4" d="M17.777,33.677h5.338a0,0,0,0,1,0,0v2.759a.716.716,0,0,1-.716.716H18.493a.716.716,0,0,1-.716-.716V33.677A0,0,0,0,1,17.777,33.677Z"/><g class="cls-5"><path class="cls-6" d="M9.62,21.1v8.587a2.5,2.5,0,0,0,.563,1.571l6.575-5.24Z"/><path class="cls-6" d="M28.309,21.1l-7.137,4.918,6.574,5.24a2.5,2.5,0,0,0,.563-1.571Z"/><path class="cls-7" d="M20.684,26.349a3.032,3.032,0,0,1-3.439,0l-.487-.336-6.575,5.24a2.512,2.512,0,0,0,1.963.954H25.784a2.51,2.51,0,0,0,1.962-.954l-6.574-5.24Z"/><path class="cls-8" d="M28.309,21.1l-7.625,6.354a2.756,2.756,0,0,1-3.439,0L9.62,21.1Z"/><path class="cls-7" d="M25.784,17.559H12.146A2.526,2.526,0,0,0,9.62,20.085V21.1l7.625,5.254a3.032,3.032,0,0,0,3.439,0L28.309,21.1v-1.01A2.526,2.526,0,0,0,25.784,17.559Z"/></g><rect class="cls-1" width="40" height="40"/></svg>
